X:496
T:Reel 496
M:4/4
K:Bmin
L:1/8
FE|D>B, (3B,B,B, F>B, (3B,A,B, |D>B, (3B,A,B, F>E (3DCB, |D>B, (3B,^A,B, F>B, (3B,B,B, |CA,AC E2:||2D>D (3DDD FDB,FDB,A,| (3A,B,C DE FGA2| (3GAB FE D2DB,| (3CDC  (3DEF G>B, (3CB,C | (3AGA ED CDE,>B, (3CB,A, |CEA^G A2 (3AGA | (3GAG A2 DEDB,|E>C (3CCA E>C (3CB,C |B,EDE F2FD|E>A (3AGF ECA,C|B,>A, (3A,B,A, B,A, (3CB,A, |B,>A, (3A,B,A, B,EDB,|C>A (3AAA B>A (3AAA |EDED EEDE|B,>A, (3A,A,A, B,2DB,|A,A,A,B, CDECD
